assets/chat-com.svg

<!DOCTYPE svg PUBLIC "-//W3C//DTD SVG 1.1//EN" "http://www.w3.org/Graphics/SVG/1.1/DTD/svg11.dtd">
<!-- Uploaded to: SVG Repo, www.svgrepo.com, Transformed by: SVG Repo Mixer Tools -->
<svg width="800px" height="800px" viewBox="0 0 24 24" fill="none" xmlns="http://www.w3.org/2000/svg">
<g id="SVGRepo_bgCarrier" stroke-width="0"/>
<g id="SVGRepo_tracerCarrier" stroke-linecap="round" stroke-linejoin="round"/>
<g id="SVGRepo_iconCarrier"> <g id="Communication / Chat_Remove"> <path id="Vector" d="M9 11H15M7.12357 18.7012L5.59961 19.9203C4.76744 20.5861 4.35115 20.9191 4.00098 20.9195C3.69644 20.9198 3.40845 20.7813 3.21846 20.5433C3 20.2696 3 19.7369 3 18.6712V7.2002C3 6.08009 3 5.51962 3.21799 5.0918C3.40973 4.71547 3.71547 4.40973 4.0918 4.21799C4.51962 4 5.08009 4 6.2002 4H17.8002C18.9203 4 19.4796 4 19.9074 4.21799C20.2837 4.40973 20.5905 4.71547 20.7822 5.0918C21 5.5192 21 6.07899 21 7.19691V14.8036C21 15.9215 21 16.4805 20.7822 16.9079C20.5905 17.2842 20.2843 17.5905 19.908 17.7822C19.4806 18 18.921 18 17.8031 18H9.12207C8.70603 18 8.49877 18 8.2998 18.0408C8.12328 18.0771 7.95216 18.1368 7.79168 18.2188C7.61281 18.3101 7.45249 18.4384 7.13478 18.6926L7.12357 18.7012Z" stroke="#d1d7db" stroke-width="2" stroke-linecap="round" stroke-linejoin="round"/> </g> </g>
</svg>

<svg xmlns="http://www.w3.org/2000/svg" width="800" height="800" fill="none" viewBox="0 0 24 24"><path stroke="#d1d7db" stroke-linecap="round" stroke-linejoin="round" stroke-width="2" d="M9 11h6m-7.876 7.701L5.6 19.921c-.833.665-1.249.998-1.599.998a1 1 0 0 1-.783-.376C3 20.27 3 19.737 3 18.671V7.201c0-1.12 0-1.681.218-2.11.192-.376.497-.681.874-.873C4.52 4 5.08 4 6.2 4h11.6c1.12 0 1.68 0 2.107.218.377.192.683.497.875.874.218.427.218.987.218 2.105v7.607c0 1.117 0 1.676-.218 2.104a2 2 0 0 1-.874.874c-.427.218-.987.218-2.105.218h-8.68c-.417 0-.624 0-.823.04a2.004 2.004 0 0 0-.508.179c-.18.091-.34.22-.657.474l-.011.008Z"/></svg>
